{
 "type": "map",
 "orientation": "orthogonal",
 "renderorder": "right-down",
 "infinite": false,
 "width": 8,
 "height": 6,
 "tilewidth": 16,
 "tileheight": 16,
 "version": "1.10",
 "tiledversion": "1.10.2",
 "properties": [
  {
   "name": "id",
   "type": "string",
   "value": "tavern_room"
  },
  {
   "name": "name_ko",
   "type": "string",
   "value": "주막 방"
  },
  {
   "name": "indoor",
   "type": "bool",
   "value": true
  }
 ],
 "tilesets": [
  {
   "firstgid": 1,
   "source": "placeholder.tsj"
  }
 ],
 "layers": [
  {
   "type": "tilelayer",
   "name": "ground",
   "width": 8,
   "height": 6,
   "x": 0,
   "y": 0,
   "opacity": 1,
   "visible": true,
   "data": [
    1,
    1,
    1,
    1,
    1,
    1,
    1,
    1,
    1,
    3,
    2,
    2,
    4,
    2,
    5,
    1,
    1,
    2,
    2,
    2,
    2,
    2,
    2,
    1,
    1,
    2,
    2,
    2,
    2,
    2,
    2,
    1,
    1,
    2,
    2,
    2,
    2,
    2,
    2,
    1,
    1,
    1,
    1,
    6,
    1,
    1,
    1,
    1
   ]
  },
  {
   "type": "objectgroup",
   "name": "objects",
   "opacity": 1,
   "visible": true,
   "objects": [
    {
     "id": 1,
     "type": "warp",
     "name": "",
     "x": 48,
     "y": 80,
     "width": 16,
     "height": 16,
     "visible": true,
     "properties": [
      {
       "name": "to_map",
       "type": "string",
       "value": "village"
      },
      {
       "name": "to_x",
       "type": "int",
       "value": 6
      },
      {
       "name": "to_y",
       "type": "int",
       "value": 9
      },
      {
       "name": "face",
       "type": "string",
       "value": "D"
      }
     ]
    }
   ]
  }
 ]
}