{
 "type": "map",
 "orientation": "orthogonal",
 "renderorder": "right-down",
 "infinite": false,
 "width": 28,
 "height": 19,
 "tilewidth": 16,
 "tileheight": 16,
 "version": "1.10",
 "tiledversion": "1.10.2",
 "properties": [
  {
   "name": "id",
   "type": "string",
   "value": "village"
  },
  {
   "name": "name_ko",
   "type": "string",
   "value": "한양 외곽 주막 마을"
  },
  {
   "name": "indoor",
   "type": "bool",
   "value": false
  }
 ],
 "tilesets": [
  {
   "firstgid": 1,
   "source": "placeholder.tsj"
  }
 ],
 "layers": [
  {
   "type": "tilelayer",
   "name": "ground",
   "width": 28,
   "height": 19,
   "x": 0,
   "y": 0,
   "opacity": 1,
   "visible": true,
   "data": [
    9,
    9,
    9,
    9,
    9,
    9,
    9,
    9,
    9,
    9,
    9,
    9,
    8,
    8,
    8,
    8,
    9,
    9,
    9,
    9,
    9,
    9,
    9,
    9,
    9,
    9,
    9,
    9,
    9,
    9,
    9,
    9,
    9,
    9,
    9,
    9,
    9,
    9,
    9,
    16,
    8,
    8,
    8,
    8,
    16,
    9,
    9,
    9,
    9,
    9,
    9,
    9,
    9,
    9,
    9,
    9,
    9,
    7,
    7,
    7,
    7,
    7,
    7,
    7,
    7,
    7,
    7,
    7,
    8,
    8,
    8,
    8,
    7,
    7,
    7,
    7,
    7,
    7,
    7,
    7,
    7,
    7,
    7,
    9,
    9,
    7,
    7,
    7,
    7,
    7,
    7,
    7,
    7,
    7,
    7,
    7,
    8,
    8,
    8,
    8,
    7,
    7,
    7,
    7,
    7,
    7,
    7,
    7,
    7,
    7,
    7,
    9,
    9,
    7,
    10,
    10,
    10,
    10,
    10,
    10,
    10,
    10,
    10,
    7,
    8,
    8,
    8,
    8,
    7,
    7,
    11,
    11,
    11,
    11,
    11,
    11,
    7,
    7,
    7,
    9,
    9,
    7,
    10,
    7,
    7,
    7,
    7,
    7,
    7,
    7,
    10,
    7,
    8,
    8,
    8,
    8,
    7,
    7,
    11,
    11,
    11,
    11,
    11,
    11,
    7,
    7,
    7,
    9,
    9,
    7,
    10,
    7,
    11,
    11,
    11,
    11,
    11,
    7,
    10,
    7,
    8,
    8,
    8,
    8,
    7,
    7,
    12,
    12,
    14,
    12,
    12,
    12,
    7,
    7,
    7,
    9,
    9,
    7,
    10,
    7,
    11,
    11,
    11,
    11,
    11,
    7,
    10,
    7,
    8,
    8,
    8,
    8,
    8,
    8,
    8,
    8,
    8,
    8,
    8,
    8,
    7,
    7,
    7,
    9,
    9,
    7,
    10,
    7,
    12,
    12,
    13,
    12,
    12,
    7,
    10,
    7,
    8,
    8,
    8,
    8,
    8,
    8,
    8,
    8,
    8,
    8,
    8,
    8,
    7,
    7,
    7,
    9,
    9,
    7,
    10,
    7,
    8,
    8,
    8,
    7,
    5,
    5,
    10,
    7,
    8,
    8,
    8,
    8,
    7,
    7,
    7,
    7,
    7,
    7,
    7,
    7,
    7,
    7,
    7,
    9,
    9,
    7,
    10,
    7,
    7,
    7,
    8,
    7,
    5,
    5,
    10,
    7,
    8,
    8,
    8,
    8,
    7,
    7,
    7,
    7,
    15,
    7,
    7,
    7,
    7,
    7,
    7,
    9,
    9,
    7,
    10,
    7,
    7,
    7,
    8,
    7,
    7,
    7,
    10,
    7,
    8,
    8,
    8,
    8,
    7,
    7,
    7,
    7,
    7,
    7,
    7,
    7,
    7,
    7,
    7,
    9,
    9,
    7,
    10,
    7,
    7,
    7,
    8,
    7,
    7,
    7,
    10,
    7,
    8,
    8,
    8,
    8,
    7,
    7,
    7,
    7,
    7,
    7,
    7,
    7,
    7,
    7,
    7,
    9,
    9,
    7,
    10,
    10,
    10,
    10,
    8,
    10,
    10,
    10,
    10,
    7,
    8,
    8,
    8,
    8,
    7,
    7,
    7,
    7,
    7,
    7,
    7,
    7,
    7,
    7,
    7,
    9,
    9,
    7,
    7,
    7,
    7,
    7,
    8,
    8,
    8,
    8,
    8,
    8,
    8,
    8,
    8,
    8,
    7,
    7,
    7,
    7,
    7,
    7,
    7,
    7,
    7,
    7,
    7,
    9,
    9,
    7,
    7,
    7,
    7,
    7,
    7,
    7,
    7,
    7,
    7,
    7,
    8,
    8,
    8,
    8,
    7,
    7,
    7,
    7,
    7,
    7,
    7,
    7,
    7,
    7,
    7,
    9,
    9,
    7,
    7,
    7,
    7,
    7,
    7,
    7,
    7,
    7,
    7,
    7,
    8,
    8,
    8,
    8,
    7,
    7,
    7,
    7,
    7,
    7,
    7,
    7,
    7,
    7,
    7,
    9,
    9,
    9,
    9,
    9,
    9,
    9,
    9,
    9,
    9,
    9,
    9,
    9,
    8,
    8,
    8,
    8,
    9,
    9,
    9,
    9,
    9,
    9,
    9,
    9,
    9,
    9,
    9,
    9,
    9,
    9,
    9,
    9,
    9,
    9,
    9,
    9,
    9,
    9,
    9,
    9,
    9,
    9,
    9,
    9,
    9,
    9,
    9,
    9,
    9,
    9,
    9,
    9,
    9,
    9,
    9,
    9
   ]
  },
  {
   "type": "objectgroup",
   "name": "objects",
   "opacity": 1,
   "visible": true,
   "objects": [
    {
     "id": 1,
     "type": "warp",
     "name": "",
     "x": 96,
     "y": 128,
     "width": 16,
     "height": 16,
     "visible": true,
     "properties": [
      {
       "name": "to_map",
       "type": "string",
       "value": "tavern_room"
      },
      {
       "name": "to_x",
       "type": "int",
       "value": 3
      },
      {
       "name": "to_y",
       "type": "int",
       "value": 4
      },
      {
       "name": "face",
       "type": "string",
       "value": "U"
      }
     ]
    },
    {
     "id": 2,
     "type": "npc",
     "name": "주모",
     "x": 80,
     "y": 176,
     "width": 16,
     "height": 16,
     "visible": true,
     "properties": [
      {
       "name": "name",
       "type": "string",
       "value": "주모"
      },
      {
       "name": "face",
       "type": "string",
       "value": "D"
      },
      {
       "name": "sprite",
       "type": "string",
       "value": "jumo"
      },
      {
       "name": "talk_event",
       "type": "string",
       "value": "talk_jumo"
      }
     ]
    },
    {
     "id": 3,
     "type": "npc",
     "name": "노인",
     "x": 176,
     "y": 48,
     "width": 16,
     "height": 16,
     "visible": true,
     "properties": [
      {
       "name": "name",
       "type": "string",
       "value": "노인"
      },
      {
       "name": "face",
       "type": "string",
       "value": "R"
      },
      {
       "name": "sprite",
       "type": "string",
       "value": "village_elder"
      },
      {
       "name": "talk_event",
       "type": "string",
       "value": "talk_elder"
      }
     ]
    },
    {
     "id": 4,
     "type": "trigger",
     "name": "",
     "x": 192,
     "y": 32,
     "width": 16,
     "height": 16,
     "visible": true,
     "properties": [
      {
       "name": "event",
       "type": "string",
       "value": "gate_jangseung"
      },
      {
       "name": "once",
       "type": "bool",
       "value": false
      }
     ]
    },
    {
     "id": 5,
     "type": "trigger",
     "name": "",
     "x": 208,
     "y": 32,
     "width": 16,
     "height": 16,
     "visible": true,
     "properties": [
      {
       "name": "event",
       "type": "string",
       "value": "gate_jangseung"
      },
      {
       "name": "once",
       "type": "bool",
       "value": false
      }
     ]
    },
    {
     "id": 6,
     "type": "trigger",
     "name": "",
     "x": 224,
     "y": 32,
     "width": 16,
     "height": 16,
     "visible": true,
     "properties": [
      {
       "name": "event",
       "type": "string",
       "value": "gate_jangseung"
      },
      {
       "name": "once",
       "type": "bool",
       "value": false
      }
     ]
    },
    {
     "id": 7,
     "type": "trigger",
     "name": "",
     "x": 240,
     "y": 32,
     "width": 16,
     "height": 16,
     "visible": true,
     "properties": [
      {
       "name": "event",
       "type": "string",
       "value": "gate_jangseung"
      },
      {
       "name": "once",
       "type": "bool",
       "value": false
      }
     ]
    }
   ]
  }
 ]
}